X:1
T:Reviens vers moy
T:Reviens vers moy
T:Johannes Lupi
C:Johannes Lupi
%%score [ 1 [ 2 3 ] 4 ]
L:1/8
Q:1/4=76
M:2/2
K:C
V:1 treble nm="Superius" snm="S"
V:2 treble-8 nm="Tenor 1" snm="T 1"
V:3 treble-8 nm="Tenor 2" snm="T 2"
V:4 bass nm="Bass" snm="B"
V:1
 G8 | A4 G4 | E6 E/D/E/F/ | G4 z4 | z2 c2 c2 c2 | B2 A2 G2 CD | EFGA B2 c2 | B2 G2 G3 A | %8
w: Re-|viens vers|moy, _ _ _ _|_|qui suis tant|dé- so- lé- * *|||
 B2 c2 B2 G2 | AB c4 BA | B4 G4 | A4 G4 | E6 E/D/E/F/ | G4 z4 | z2 c2 c2 c2 | B2 A2 G2 CD | %16
w: ||e et|tu ver-|ras, _ _ _ _|_|l'en- nuy et|le tour- ment, _ _|
 EFGA B2 c2 | B2 G2 G3 A | B2 c2 B2 EF | GABc d2 c2- | c2 B2 c4 | z2 e3 dcB | c2 c2 B4 | c6 B2 | %24
w: _ _ _ _ _ _|* l'en- nuy et|le tour- ment _ _|_ _ _ _ _ _||que _ _ _|j'ay souf- fert|_ _|
 A4 G4- | G4 z2 E2 | G6 G2 | A4 G4 | C2 G2 A2 G2- | G2 F2 G4- | G2 F4 ED | E4 z2 G2 |: %32
w: |* at-|ten- ten-|dant lon-|gue- ment, en at-|* ten- dant|_ lon- gue- *|ment le|
 G2 G2 C2 C2 | G3 A B2 B2 | c6 BA | B3 c A4 | G4 z4 | z2 G2 G2 G2 | C2 C2 G2 G2 | A2 c2 BA d2- | %40
w: tien re- tour dont|se- * * ray|con- so- *|lé- * *|e,|le tien re-|tour dont se- ray|con- so- lé- * *|
 dc c4 B2 |1 c4 z2 G2 :|2 c4 G4 || A4 G4 | E6 E/D/E/F/ | G8 |] %46
w: |e, le|e, re-|viens vers|moy. _ _ _ _|_|
V:2
 d8 | f4 d4 | c2 g2 g3 f | e2 e2 d2 cd | ef g4 fe | d2 c2 B2 AB | cdef g2 c2 | d2 e2 e2 e2 | %8
w: Re-|viens vers|moy, qui suis tant|dé- so- lé- * *|||* * * * e, qui|suis tant dé- so-|
 d2 cd ef g2- | gffe g4- | g4 d4 | f4 d4 | c2 g2 g3 f | e2 e2 d2 cd | ef g4 fe | d2 c2 B2 A2 | %16
w: lé- * * * * *|* * * * e,|_ et|tu ver-|ras l'en- nuy et|le tour- ment _ _|_ _ _ _ _|* et le tour-|
 cdef g2 c2 | d2 e2 e2 e2 | d2 c2 dB c2 | G4 z2 g2- | g2 g2 g4 | e4 z2 e2- | e2 c2 d2 e2- | %23
w: ment, _ _ _ _ l'en-|nuy et le tour-|ment _ _ _ _|_ que|_ j'ay souf-|fert, que|_ j'ay souf- fert|
 edcB A2 B2 | c2 A2 B2 e2- | ed d3 c c2- | cB/A/ B2 c2 g2- | g2 f2 ed e2- | edcB A2 B2 | c4 B3 A | %30
w: _ _ _ _ _ at-|ten- dant lon- *|* * gue- * *|* * * ment, at- ten-|* dant lon- * *|||
 G2 A2 F4 | G8 |: z2 g2 g2 g2 | cdec d2 d2 | e3 f g2 g2 |"^#""^#" d2 g3 f/e/ f2 | g2 G2 B2 B2 | %37
w: * * gue-|ment|le tien re-|tour _ _ _ _ dont|se- ray con- so-|lé- * * * *|e, dont se- ray|
 c2 e2 d3 e | f2 e3 d g2- | g2 f2 g2 a2- | a2 f2 g4 |1 e8 :|2 e8 || f4 d4 | c8 | c8 |] %46
w: con- so- lé- *||||e,|e,|re- viens|vers|moy|
V:3
 G8 | c4 B4 | G2 G2 c3 d | ef g3 ffe | gfed e4 | z4 z2 c2 | c2 c2 B2 A2 | G2 cd ef g2- | %8
w: Re-|viens vers|moy, qui suis tant|dé- so- lé- * * *|* * * * e,|qui|suis tant dé- so-|lé- * * * * *|
 g2 f2 gfed | c4 d4- | d4 B4 | c4 B4 | G2 G2 c3 d | ef g3 ffe | gfed e4 | z4 z2 c2 | c2 c2 B2 A2 | %17
w: |* e,|_ et|tu ver-|ras l'en- nuy et|le _ tour- * * *|ment, _ _ _ _|l'en-|nuy et le tour-|
 G2 cd ef g2- | g2 f2 g2 g2 | g2 g2 f2 e2 | d4 c4- | c4 z2 g2- | g2 g2 g4 | c4 z2 e2- | e2 e2 e4 | %25
w: ment, _ _ _ _ _|_ l'en- nuy et|le tour- ment _|_ _|* que|_ j'ay souf-|fert,- que|_ jay souf-|
 B4 z2 c2 | d2 d2 e4 | d4 G2 g2- | gf e2 d2 e2- | e2 dc d2 e2- | ed c4 B2 | c2 g2 g2 g2 |: c4 z4 | %33
w: fert en|at- ten- dant|lon- * gue-||* * * ment, at-|* * * ten-|dant le tien re-|tour,|
 z2 g2 g2 g2 | cdec d4 | z2 d2 d2 d2 | G4 z2 G2 | A2 c2 c2 B2 | A4 G2 G2 | c2 c2 d2 f2 | %40
w: le tien re-|tour, _ _ _ _|le tien re-|tour dont|se- ray con- so-|lé- e, dont|se- ray con- so-|
 e2 dc d4 |1 c2 g2 g2 g2 :|2 c4 c4 || c4 B4 | G8- | G8 |] %46
w: lé- * * *|e, le tien re-|e, re-|viens vers|moy.|_|
V:4
 G,8 | F,4 G,4 | C,4 z2 C2 | C2 C2 B,2 A,2 | G,2 C,3 D,E,F, | G,2 A,2 E,2 F,2 | C,4 z4 | %7
w: Re-|viens vers|moy, qui|suis tant dé- so-|lé- * * * *||e,|
 z2 C2 C2 C2 | B,2 A,2 G,3 B, | A,4 G,4 | G,8 | F,4 G,4 | C,4 z2 C2 | C2 C2 B,2 A,2 | %14
w: qui suis tant|dé- so- lé- *|* e,|et|tu ver-|ras l'en-|nuy et le tour-|
 G,2 C,3 D,E,F, | G,2 A,2 E,2 F,2 | C,4 z4 | z2 C2 C2 C2 | B,2 A,2 G,2 C,D, | E,F,G,A, _B,2 C2 | %20
w: ment, _ _ _ _|_ _ _ _||l'en- nuy et|le tour- ment _ _|_ _ _ _ _ _|
 G,4 C,4 | z2 C4 C2 | C4 G,4 | A,6 G,2 | A,4 E,2 E,2 | G,2 G,2 A,4 | G,4 C,4 | z2 D,2 E,2 C,2- | %28
w: |que j'ay|souf- fert,|que j'ay|souf- fert at-|ten- dant lon-|gue- ment,|et- ten- dant|
 C,D, E,2 F,2 G,2 | A,4 G,3 F, | E,2 F,2 D,4 | C,8- |: C,4 z2 C2 | C2 C2 G,4 | z4 G,4 | %35
w: _ _ lon- gue- *|||ment|_ le|tien re- tour,|le|
 G,2 G,2 D,4 | z2 G,2 G,2 G,2 | C,2 C,2 G,2 G,2 | A,2 C4 B,2 | A,4 G,2 F,2 | A,4 G,4 |1 C,8 :|2 %42
w: tien re- tour,|le tien re-|tour dont se- ray|con- so- lé-|||e,|
 C,4 C,4 || F,4 G,4 | C,8- | C,8 |] %46
w: e, re-|viens vers|moy.|_|

